images/icons/facebook-icon.svg

<svg width="32" height="32" viewBox="0 0 32 32" fill="none" xmlns="http://www.w3.org/2000/svg">
<path d="M15.9997 0C7.17757 0 0 7.17757 0 16C0 24.8227 7.17757 32 15.9997 32C24.8222 32 32 24.8227 32 16C31.9997 7.17757 24.8219 0 15.9997 0ZM15.9997 30.4219C8.0476 30.4219 1.57806 23.9524 1.57806 16C1.57806 8.04787 8.0476 1.57806 15.9997 1.57806C23.9519 1.57806 30.4219 8.04787 30.4219 16C30.4217 23.9524 23.9519 30.4219 15.9997 30.4219Z" fill="#484E53"/>
<path d="M20.9272 6.61133H17.4565C17.4486 6.61128 17.4407 6.61163 17.4329 6.61239C13.9288 6.62343 13.4711 9.07022 13.4693 11.2088C13.4644 11.229 13.462 11.2498 13.4619 11.2706V12.7718H11.0638C10.994 12.7718 10.9271 12.7995 10.8778 12.8489C10.8285 12.8982 10.8008 12.9651 10.8008 13.0348V16.7373C10.8008 16.807 10.8285 16.8739 10.8778 16.9232C10.9271 16.9726 10.994 17.0003 11.0638 17.0003H13.4619V25.1249C13.4619 25.1947 13.4896 25.2616 13.539 25.3109C13.5883 25.3602 13.6552 25.3879 13.7249 25.3879H17.2248C17.2946 25.3879 17.3615 25.3602 17.4108 25.3109C17.4601 25.2616 17.4878 25.1947 17.4878 25.1249V17.0005H20.927C20.9967 17.0005 21.0636 16.9728 21.1129 16.9235C21.1623 16.8742 21.19 16.8073 21.19 16.7375V13.0351C21.19 12.9654 21.1623 12.8985 21.1129 12.8491C21.0636 12.7998 20.9967 12.7721 20.927 12.7721H17.2248V10.7819H20.927C20.9967 10.7819 21.0636 10.7542 21.1129 10.7049C21.1623 10.6555 21.19 10.5886 21.19 10.5189V6.87434C21.19 6.83982 21.1832 6.80562 21.17 6.77371C21.1569 6.74181 21.1375 6.71281 21.1131 6.68838C21.0887 6.66396 21.0597 6.64458 21.0278 6.63136C20.9959 6.61814 20.9617 6.61133 20.9272 6.61133Z" fill="#484E53"/>
</svg>

<svg xmlns="http://www.w3.org/2000/svg" width="32" height="32" fill="none"><path fill="#484E53" d="M16 0C7.178 0 0 7.178 0 16c0 8.823 7.178 16 16 16s16-7.177 16-16c0-8.822-7.178-16-16-16m0 30.422c-7.952 0-14.422-6.47-14.422-14.422S8.048 1.578 16 1.578 30.422 8.048 30.422 16 23.952 30.422 16 30.422"/><path fill="#484E53" d="M20.927 6.611h-3.47l-.024.001c-3.504.011-3.962 2.458-3.964 4.597a.3.3 0 0 0-.007.062v1.5h-2.398a.263.263 0 0 0-.263.264v3.702a.263.263 0 0 0 .263.263h2.398v8.125a.263.263 0 0 0 .263.263h3.5a.263.263 0 0 0 .263-.263V17h3.439a.263.263 0 0 0 .263-.262v-3.703a.263.263 0 0 0-.263-.263h-3.702v-1.99h3.702a.263.263 0 0 0 .263-.263V6.874a.263.263 0 0 0-.263-.263"/></svg>
